!!!COM: Palestrina, Giovanni Perluigi da
!!!OPR: Missa Quando lieta sperai
!!!OTL: Sanctus
**kern	**kern	**kern	**kern	**kern
*Ibass	*Ibarit	*Itenor	*Icalto	*Icant
!Bassus	!Baritone	!Tenor	!Altus	!Cantus
*clefF4	*clefF4	*clefGv2	*clefG2	*clefG2
*k[]	*k[]	*k[]	*k[]	*k[]
*A:aeo	*A:aeo	*A:aeo	*A:aeo	*A:aeo
*M4/2	*M4/2	*M4/2	*M4/2	*M4/2
=1	=1	=1	=1	=1
0r	0r	1e	0r	1e
.	.	2d	.	2f
.	.	2c	.	2e
=2	=2	=2	=2	=2
0r	0r	2d	0r	2f
.	.	2e	.	2g
.	.	4A	.	2a
.	.	4B	.	.
.	.	4c	.	4e
.	.	4d	.	4f
=3	=3	=3	=3	=3
1E	0r	4e	0r	4g
.	.	4f	.	4a
.	.	2g	.	4b
.	.	.	.	4g
2F	.	2c	.	4a
.	.	.	.	4b
2E	.	[2e	.	[2cc
=4	=4	=4	=4	=4
2F	1r	2e]	1r	2cc]
2G	.	1d	.	2b
1A	1e	.	1e	[1a
.	.	2c	.	.
=5	=5	=5	=5	=5
2r	2d	2d	2f	1a]
2AA	2c	1A	2e	.
2D	2d	.	2f	1r
2C	2e	[2c	2g	.
=6	=6	=6	=6	=6
1F	4A	2c]	1a	0r
.	4B	.	.	.
.	4c	2A	.	.
.	4d	.	.	.
1E	2.e	2B	2.g	.
.	.	2G	.	.
.	4d	.	4f	.
=7	=7	=7	=7	=7
0r	4c	2.A	4e	1a
.	4B	.	4d	.
.	2.c	.	2.e	.
.	.	4B	.	.
.	.	1c	.	2g
.	4B	.	4d	.
.	2A	.	2c	2f
=8	=8	=8	=8	=8
0r	2G	2d	2B	2g
.	2F	2.f	2c	2a
.	1B-	.	1d	4d
.	.	4e	.	4e
.	.	2d	.	4f
.	.	.	.	4g
=9	=9	=9	=9	=9
1r	2.A	2c	1e	4a
.	.	.	.	4b
.	.	1A	.	1cc
.	8G	.	.	.
.	8F	.	.	.
2r	1E	.	2r	.
2E	.	2G	2e	[2b
=10	=10	=10	=10	=10
2D	2r	2.A	2f	4b]
.	.	.	.	4a
2C	2e	.	2e	1a
.	.	4c	.	.
2D	2d	1B	2f	.
2E	2B	.	[2e	2g#
=11	=11	=11	=11	=11
4AA	1.c	1A	4e]	1a
4BB	.	.	4d	.
4C	.	.	4e	.
4D	.	.	4f	.
2.E	.	2r	1g	1r
.	4B	2e	.	.
4F	4A	.	.	.
=12	=12	=12	=12	=12
2G	2B	2d	0r	2r
1A	2A	1c	.	2e
.	2r	.	.	2f
2G	2B	2B	.	2e
=13	=13	=13	=13	=13
2A	2c	2A	0r	2f
2G	2B	2e	.	2g
1F	2c	1A	.	1a
.	2d	.	.	.
=14	=14	=14	=14	=14
1E	1.e	1B	2r	[0g
.	.	.	2B	.
1r	.	2r	2c	.
.	2d	2d	2B	.
=15	=15	=15	=15	=15
0r	2c	2e	2c	1g_
.	2B	2.d	2d	.
.	1c	.	1e	1g_
.	.	4c	.	.
.	.	[2c	.	.
=16	=16	=16	=16	=16
0r	0G	2c]	2.d	0g]
.	.	4B	.	.
.	.	4A	4c	.
.	.	2B	1d	.
.	.	[2B	.	.
=17	=17	=17	=17	=17
2.E	2.G	4B]	1e	0r
.	.	4B	.	.
.	.	2B	.	.
4E	4G	.	.	.
2E	2G	1c	1r	.
[2F	[2A	.	.	.
=18	=18	=18	=18	=18
2F]	2A]	1d	0r	2r
2G	2B	.	.	2.g
2E	2.c	2e	.	.
.	.	.	.	4g
2C	.	2e	.	2g
.	4B	.	.	.
=19	=19	=19	=19	=19
1D	4A	2.d	1r	1f
.	4G	.	.	.
.	1A	.	.	.
.	.	4c	.	.
1E	.	2.B	2r	1e
.	4G#	.	[2e	.
.	4F#	4A	.	.
=20	=20	=20	=20	=20
0r	2G#	2B	4e]	2r
.	.	.	4e	.
.	2A	2c#	2e	2.a
.	1D	2d	1f#	.
.	.	.	.	4a
.	.	[2d	.	2a
=21	=21	=21	=21	=21
0r	1G	4d]	0g	1b
.	.	4d	.	.
.	.	2d	.	.
.	2.c	1e	.	1cc
.	4B	.	.	.
=22	=22	=22	=22	=22
0r	2A	2c	2a	1.cc
.	2F	2f	2a	.
.	1G	2e	2.g	.
.	.	[2d	.	2b
.	.	.	4f	.
=23	=23	=23	=23	=23
2r	1A	2d]	4e	0a
.	.	.	4d	.
2.A	.	2c#	2e	.
.	1D	2r	1f#	.
4A	.	.	.	.
2A	.	[2d	.	.
=24	=24	=24	=24	=24
1B	1G	4d]	1g	2r
.	.	4d	.	.
.	.	2d	.	2.g
2.c	1r	[1e	2r	.
.	.	.	.	4g
.	.	.	[2c	2g
4B	.	.	.	.
=25	=25	=25	=25	=25
1A	1r	2e]	4c]	1a
.	.	.	4c	.
.	.	2f	2c	.
[1G	2r	[1g	2.d	2.b
.	[2B	.	.	.
.	.	.	4c	4cc
=26	=26	=26	=26	=26
2G]	4B]	1g]	2B	2dd
.	4B	.	.	.
2E	2B	.	2G	2.ee
1C	1c	1e	1g	.
.	.	.	.	4dd
.	.	.	.	[2cc
=27	=27	=27	=27	=27
1G	1d	1d	2.g	2cc]
.	.	.	.	2b
.	.	.	4g	.
2r	[1e	2.c	2g	[1cc
[2C	.	.	2a	.
.	.	4d	.	.
=28	=28	=28	=28	=28
4C]	2e]	4e	2g	1cc]
4C	.	4f	.	.
2C	2e	1g	2cc	.
1D	2.d	.	2b	1r
.	.	2f	[2a	.
.	4c	.	.	.
=29	=29	=29	=29	=29
0E	0B	1e	2a]	2r
.	.	.	4g	2.b
.	.	.	4f#	.
.	.	2.e	2g	.
.	.	.	.	4b
.	.	.	2g	2b
.	.	4e	.	.
=30	=30	=30	=30	=30
0r	0r	2e	2g	1cc
.	.	1f	1a	.
.	.	.	.	1dd
.	.	2g	2b	.
=31	=31	=31	=31	=31
0r	2r	2.c	1g	1.ee
.	2.c	.	.	.
.	.	4d	.	.
.	.	4e	2.cc	.
.	4c	4f	.	.
.	2c	[2g	.	2ee
.	.	.	4b	.
=32	=32	=32	=32	=32
1r	1d	2g]	1a	2.dd
.	.	2f#	.	.
.	.	.	.	4cc
2r	1e	2g	[1g	4b
.	.	.	.	4a
[2C	.	[2G	.	4g
.	.	.	.	4f
=33	=33	=33	=33	=33
4C]	2e	2G]	2g]	4e
4C	.	.	.	4c
2C	2e	2.A	4f	2cc
.	.	.	4e	.
2D	4d	.	1f	2a
.	4c	8B	.	.
.	.	8c	.	.
2D	4B	[2d	.	[2b
.	4A	.	.	.
=34	=34	=34	=34	=34
1E	2G#	2d]	0e	2b]
.	2A	2c	.	1a
1E	1B	2B	.	.
.	.	2e	.	2g#
=35	=35	=35	=35	=35
0AA	0A	2.c#	2r	[0a
.	.	.	2.e	.
.	.	4d	.	.
.	.	1e	.	.
.	.	.	4e	.
.	.	.	2c	.
=36	=36	=36	=36	=36
2r	2r	1r	1f	1a]
2.A	2.c	.	.	.
.	.	2r	1e	1r
4A	4c	.	.	.
2G#	2B	[2e	.	.
=37	=37	=37	=37	=37
1A	2c	4e]	0r	1r
.	.	4e	.	.
.	2e	2c	.	.
1D	1d	1f	.	2r
.	.	.	.	[2a
=38	=38	=38	=38	=38
1E	1B	1e	1r	4a]
.	.	.	.	4g#
.	.	.	.	2g#
2.F	1A	2r	2r	1a
.	.	[2d	[2f	.
4G	.	.	.	.
=39	=39	=39	=39	=39
1A	2r	4d]	4f]	0a
.	.	4c	4f	.
.	2.A	2c	2e	.
1D	.	2d	2f	.
.	4A	.	.	.
.	2F	2f	2a	.
=40	=40	=40	=40	=40
0r	1G	2e	2.g	1b
.	.	2.d	.	.
.	.	.	4f	.
.	2A	.	1e	2.a
.	.	4c	.	.
.	2A	2c	.	.
.	.	.	.	4cc
=41	=41	=41	=41	=41
0r	2D	2.d	2.f	4b
.	.	.	.	4a
.	2D	.	.	1a
.	.	4c	4e	.
.	2r	1B	1d	.
.	[2d	.	.	2g#
=42	=42	=42	=42	=42
0r	2d]	0A	0e	0a
.	2c	.	.	.
.	2.c	.	.	.
.	4B	.	.	.
=43	=43	=43	=43	=43
1.AA	4A	1.e	2r	1.cc
.	4G	.	.	.
.	1A	.	1a	.
2E	[2B	2e	2g	2b
=44	=44	=44	=44	=44
0E	4B]	0e	2.g	0b
.	4A	.	.	.
.	2B	.	.	.
.	.	.	4f	.
.	1G#	.	4e	.
.	.	.	4d	.
.	.	.	[2e	.
=45	=45	=45	=45	=45
0F	0A	1c	2e]	0a
.	.	.	4d	.
.	.	.	4c	.
.	.	1A	2d	.
.	.	.	2d	.
=46	=46	=46	=46	=46
2E	2r	2B	1e	1g#
2E	2B	2e	.	.
2.D	2.d	2.f	1r	1r
4E	4c	4e	.	.
=47	=47	=47	=47	=47
2G	2B	2d	1r	1r
2A	2A	2c	.	.
2E	2G#	2B	2r	2r
2E	2G#	2B	2e	2b
=48	=48	=48	=48	=48
0r	0r	1r	2.a	2.cc
.	.	.	4g	4b
.	.	2r	2f	2a
.	.	2c	2e	2g
=49	=49	=49	=49	=49
0r	0r	2.f	2.d	0a
.	.	4e	4e	.
.	.	2d	4f	.
.	.	.	4d	.
.	.	2c	2e	.
=50	=50	=50	=50	=50
1G	2r	1B	2d	1g
.	2B	.	2d	.
2.A	2.c	1A	2.f	1r
4G	4B	.	4e	.
=51	=51	=51	=51	=51
2F	2A	1r	2d	1r
2E	2G	.	2c	.
1D	1d	2r	2B	2r
.	.	2f	2A	2dd
=52	=52	=52	=52	=52
1C	1G	2.g	4c	2.ee
.	.	.	4d	.
.	.	.	4e	.
.	.	4f	4f	4dd
2r	2r	2e	2g	2cc
2G	2B	2d	2g	2b
=53	=53	=53	=53	=53
2.A	2.c	2c	2.f	2a
.	.	2c	.	2a
4G	4B	.	4e	.
2F	2A	2r	2d	2r
2E	2G	2e	2g	2cc
=54	=54	=54	=54	=54
0D	2.A	2.f	4f	2.dd
.	.	.	4e	.
.	.	.	4d	.
.	4G	4e	4e	4cc
.	4F	2.d	4f	2b
.	4D	.	4g	.
.	[2d	.	2f	2a
.	.	4c	.	.
=55	=55	=55	=55	=55
0E	2d]	2B	1e	2g#
.	2c	2A	.	1a
.	1B	2B	2r	.
.	.	2E	2b	2g#
=56	=56	=56	=56	=56
1AA	1A	2r	2.cc	[0a
.	.	2e	.	.
.	.	.	4b	.
2D	2r	2f	2.a	.
2C#	2E	2e	.	.
.	.	.	4g	.
=57	=57	=57	=57	=57
2D	2F	2.d	0f	0a]
2D	2D	.	.	.
.	.	4d	.	.
1D	2.F	1d	.	.
.	4G	.	.	.
=58	=58	=58	=58	=58
[0AA	0A	[0c#	[0e	[0a
=59	=59	=59	=59	=59
0AA]	0A	0c#]	0e]	0a]
==	==	==	==	==
*-	*-	*-	*-	*-
!!!CDT: 1525/^1526/-1594/2/2
!!!OCY: Italia
!!!AGN: Mass (Parody)
!!!AST: renaissance, vocal
!!!ASW: Madrigal 1548 (anon (Rore, Morales))
!!!PWK: Masses, Book 11
!!!RNB: Cadence finals: G,E
!!!YOR: Le Opere Complete, v. 28, p. 73
!!!YOO: Rome, Italy: Fratelli Scalera
!!!END: 1992//
!!!EED: John Miller
!!!YEC: Copyright 2000, John Miller
!!!YEN: United States of America
!!!YEM: Rights to all derivative electronic formats reserved.
!!!YEM: Refer to licensing agreement for further details.
!!!YEM: This file must be accompanied by the licensing agreement.
!!!YEM: A copy of the licensing agreement may be found at http://www.music-cog.ohio-state.edu/HumdrumDatabases/Palestrina/license.txt
!!!EMD: converted to Humdrum by Bret Aarden
